client/public/images/key.svg

<svg height="10" viewBox="0 0 10 10" width="10" xmlns="http://www.w3.org/2000/svg"><path d="m9.04761905 1.14761905.33809524-.33333334c.18672484-.18672484.18672484-.48946563 0-.67619047-.18672485-.18672485-.48946564-.18672485-.67619048 0l-.66666667.67142857-1.34761904 1.34761905-3.00476191 3c-1.01993598-.67291174-2.38368924-.46450555-3.15610165.48230947s-.70270641 2.32463836.16131894 3.18866371 2.2418487.93373136 3.18866371.16131895c.94681502-.77241242 1.15522121-2.13616567.48230948-3.15610166l2.66190476-2.66666666 1.00952381 1.01428571c.12078979.11993917.29639095.16632695.46065621.1216895.16426527-.04463745.29223883-.17351863.3357143-.33809525.04347546-.16457662-.00415214-.33984556-.12494194-.45978473l-1.00952381-1.0095238.67619048-.67142858.33333333.33333334c.11993916.1207898.29520811.16841739.45978472.12494193.16457662-.04347547.2934578-.17144903.33809524-.33571429.04463745-.16426526-.00175032-.33986642-.12168948-.46065621zm-6.66666667 7.42380952c-.78897821 0-1.42857143-.63959321-1.42857143-1.42857143 0-.78897821.63959322-1.42857143 1.42857143-1.42857143s1.42857143.63959322 1.42857143 1.42857143c0 .78897822-.63959322 1.42857143-1.42857143 1.42857143z" fill="#3a55d8"/></svg>

<?xml version="1.0" encoding="UTF-8"?>
<svg width="10px" height="10px" viewBox="0 0 10 10" version="1.1" xmlns="http://www.w3.org/2000/svg" xmlns:xlink="http://www.w3.org/1999/xlink">
    <title>key</title>
    <g id="Page-1" stroke="none" stroke-width="1" fill="none" fill-rule="evenodd">
        <g id="Login-Page-sign" transform="translate(-38.000000, -550.000000)" fill="#3A55D8" fill-rule="nonzero">
            <g id="key" transform="translate(38.000000, 550.000000)">
                <path d="M9.04761905,1.14761905 L9.38571429,0.814285714 C9.57243913,0.62756087 9.57243913,0.324820082 9.38571429,0.138095238 C9.19898944,-0.0486296059 8.89624865,-0.0486296059 8.70952381,0.138095238 L8.04285714,0.80952381 L8.04285714,0.80952381 L6.6952381,2.15714286 L6.6952381,2.15714286 L3.69047619,5.15714286 C2.67054021,4.48423112 1.30678695,4.69263731 0.534374538,5.63945233 C-0.238037872,6.58626735 -0.168331868,7.96409069 0.695693483,8.82811604 C1.55971883,9.69214139 2.93754218,9.7618474 3.88435719,8.98943499 C4.83117221,8.21702257 5.0395784,6.85326932 4.36666667,5.83333333 L7.02857143,3.16666667 L8.03809524,4.18095238 C8.15888503,4.30089155 8.33448619,4.34727933 8.49875145,4.30264188 C8.66301672,4.25800443 8.79099028,4.12912325 8.83446575,3.96454663 C8.87794121,3.79997001 8.83031361,3.62470107 8.70952381,3.5047619 L7.7,2.4952381 L8.37619048,1.82380952 L8.70952381,2.15714286 C8.82946297,2.27793266 9.00473192,2.32556025 9.16930853,2.28208479 C9.33388515,2.23860932 9.46276633,2.11063576 9.50740377,1.9463705 C9.55204122,1.78210524 9.50565345,1.60650408 9.38571429,1.48571429 L9.04761905,1.14761905 Z M2.38095238,8.57142857 C1.59197417,8.57142857 0.952380952,7.93183536 0.952380952,7.14285714 C0.952380952,6.35387893 1.59197417,5.71428571 2.38095238,5.71428571 C3.16993059,5.71428571 3.80952381,6.35387893 3.80952381,7.14285714 C3.80952381,7.93183536 3.16993059,8.57142857 2.38095238,8.57142857 Z" id="Shape"></path>
            </g>
        </g>
    </g>
</svg>
